assets/logo-idex-grey.svg

<svg height="45" viewBox="0 0 168 45" width="168" xmlns="http://www.w3.org/2000/svg"><g fill="#282138" fill-rule="evenodd"><path d="m43.1868243 22.5966335c.068345-11.4586853-9.0591182-20.93109565-20.2680639-21.03400402-11.7231438-.10792828-21.21523324 9.10272912-21.29663899 20.66486052-.08140576 11.5526295 9.11386579 20.9171116 20.61622999 20.9958168 11.5912844.079243 20.8795911-9.066514 20.9484729-20.6266733zm-43.18673484-2.4914941c.25709904-1.1092231.4844984-2.2263346.77594888-3.3265936 2.73058147-10.30661353 12.00350156-17.17673305 22.60557186-16.76043823 10.3880895.40750996 19.1845623 8.15360558 21.054032 18.53928283 2.2187092 12.3262351-6.3800639 24.2198606-18.7961406 26.0101793-.3191821.0460757-.6240511.1927291-.9355399.2925897h-4.5961151c-.2630031-.0948407-.5192076-.2371913-.7904408-.2777092-9.1482173-1.3688247-16.26898407-7.7484263-18.56999366-16.6733068-.29628115-1.149741-.50042172-2.3235059-.74732268-3.4861554z"/><path d="m68.6750543 24.1595677c0 3.0216335.0323834 6.0434462-.0182492 9.0641833-.0168179 1.006494.3220447 1.3254382 1.3223514 1.313247 3.9239362-.0482271 7.8496614.025996 11.7732397-.0360358 4.5302747-.0717132 7.5068626-3.1014144 7.5968562-7.6469522.0359617-1.8216933.0400767-3.6453586.0055463-5.4670518-.0846262-4.4671913-3.0422492-7.516255-7.4893291-7.6032072-3.9709904-.0776295-7.9450223.0120119-11.9167284-.0390837-1.0416358-.0134462-1.3032077.3883267-1.2896102 1.3507172.0425815 3.0209163.0157444 6.042729.0159233 9.0641832m-5.6774696.0064542c-.0001789-4.1686852-.010377-8.3375498.0035782-12.5060558.008409-2.55460156 1.0407413-3.58511949 3.5680767-3.58852586 4.9730863-.00699203 9.9461725-.01954183 14.9190799.00197211 7.9638083.03478088 13.5180064 5.60151395 13.5358978 13.59663345.0053674 2.485757.1060958 5.0061156-.2474377 7.450996-.9201534 6.3670518-5.8350927 10.817749-12.2317956 11.0255379-5.4933674.1785657-10.996754.0760159-16.4953099.043745-2.0029393-.0118327-3.0333035-1.1920518-3.0451118-3.3744622-.0232588-4.2165537-.0067987-8.4332868-.0069776-12.6498406"/><path d="m132.668956 40.2265757c4.702569-5.5104382 9.16593-10.7406574 13.689763-16.0415139-4.555501-5.3503387-9.038006-10.6148008-13.73306-16.12918331 2.662952 0 4.987578-.04302789 7.307731.03980079.41508.01488048.885981.48549801 1.204806.855 2.691757 3.11737052 5.353099 6.26091632 8.026607 9.39388442.307373.3601793.633891.7036853 1.069904 1.1854184.386632-.4223905.738913-.7850797 1.066862-1.168745 2.676371-3.1308168 5.319821-6.2906773 8.050403-9.37326698.432255-.48818725 1.23862-.85948207 1.893086-.89462151 2.094185-.11258965 4.198211-.04177291 6.699604-.04177291-4.710978 5.509004-9.221393 10.783506-13.796754 16.1336653 4.528307 5.2983466 8.998109 10.5282072 13.697099 16.0264542-2.697482 0-5.103335.0458964-7.504-.0453585-.398978-.0150598-.822645-.5866136-1.154351-.9709961-2.939553-3.4038645-5.860678-6.8235059-8.914556-10.3869322-.444064.4883665-.826045.8860159-1.183157 1.305-2.610172 3.0612549-5.237342 6.1085259-7.806006 9.2045617-.583438.703506-1.192281.9543227-2.083809.9277889-2.049099-.0605976-4.101418-.0191833-6.530172-.0191833"/><path d="m129.789733 8.05159363v5.67466137h-23.192767c-.036498.6818127-.086415 1.1868526-.086952 1.692251-.005725 5.1801992-.004473 10.3605777-.003399 15.5407769.000715 3.0085458.514556 3.533486 3.472358 3.534741 6.031361.0023307 12.062543.0007171 18.093904.0007171h1.66354v5.5999004c-.273559.0396215-.588984.1249602-.904409.1253188-6.605496.006992-13.211349.0326294-19.816844-.0062749-4.042914-.0238447-7.091067-2.304502-7.992971-5.9331873-.205035-.8241633-.230978-1.7082072-.233482-2.5651793-.017892-6.6671713-.015924-13.3345219-.007515-20.0016932.0034-2.7261753.926773-3.65916335 3.597419-3.66059761 7.993687-.00412351 15.987552-.00143426 23.981418-.00143426z"/><path d="m50.476754 40.1023506h5.463131v-31.95950199h-5.463131z"/><path d="m109.021444 26.899243h18.169585v-5.5453984h-18.169585z"/><path d="m7.69384537 26.7273108c2.49334183 2.230996 5.43987223 1.9631474 8.34364213 1.976235 1.0627476.0048407 1.4502748-.4446215 1.4150288-1.4715538-.04777-1.3896215-.0588626-2.7835458.0017891-4.171733.0137764-.3169721.3850224-.6183466.5916678-.9268925.1900064.3246813.530837.6430877.5444345.9749403.0608306 1.4848207-.0370352 2.978247.0737124 4.4571514.0289841.3879681.5997189.7350597.9217636 1.1009761.3096997-.3775698.8476933-.7334463.8863387-1.1371913.1184409-1.2361554.0708498-2.4911354.041329-3.7376892-.1086006-4.5869522.8639745-3.5800996-3.9142747-3.7346414-.7938403-.0256375-1.1357444.2956374-1.122147 1.093984.0232588 1.3428287-.0617252 2.6903187.020754 4.0283068.0735336 1.1936653-.3664153 1.6088844-1.5515399 1.568008-2.0820192-.0715339-4.16815338-.0199004-6.25249843-.0199004m19.38065173 4.3969123c.0377508-.808745.0898147-1.4254781.0914249-2.0422111.0085879-3.1638048.0041151-6.3276096.0041151-9.4914144.0001789-3.700757.0001789-3.6686653-3.7371502-3.6588048-1.0623898.0028686-1.4161022.3603586-1.4008946 1.4204582.0497381 3.4506574-.0195016 6.9031076.0406135 10.3534064.0184281 1.0549004-.2683707 1.4604382-1.3608179 1.4183067-1.8628499-.0715338-3.7305304-.0186454-5.5962429-.0182868-.7854313.0001793-1.5706837.0001793-2.356115.0001793-.0391821.2180079-.0783642.4363745-.1175463.654741 1.6486901.4691833 3.2717955 1.1169323 4.9530479 1.3566335 1.6411757.2339641 3.3442556-.0087849 5.0147732.0718924 1.1361022.0548606 1.5091374-.3639442 1.4935719-1.4781872-.0470543-3.3549204-.0246901-6.7109164-.0057253-10.0663745.0028627-.5181275.1298914-1.0353586.1993099-1.5529483.1669266-.0138047.334032-.0276095.5009585-.0414143.1041278.4860359.2935975.9715339.2982492 1.4584661.0282684 2.9239243.0143131 5.8480279.0143131 8.7723108v2.7555777c.7453546.0333466 1.2531118.0561155 1.964115.0876693m3.7511055-17.1772709c.209329.0328088.418837.0656175.6281661.098247.0348882.4028486.0991182.8055179.0998339 1.2083665.0119872 5.6101196.0159233 11.2204184.0200383 16.8307172.0005367.7497609-.2295463 1.5611952 1.0167668 1.6061952 1.3720894.0493028 1.1080127-.876514 1.1092651-1.645996.0101981-5.5143825.0057253-11.028765.0057253-16.5431474.0001789-3.5318725-.0025048-3.475757-3.4462364-3.6347809-1.3953483-.0643626-1.8292141.3886852-1.8102492 1.7752589.066377 4.8901196.0255846 9.7816734.0254057 14.6728686 0 3.3640637 0 3.3545617-3.3136613 3.3298207-2.2663004-.0170319-4.5327796-.0032271-6.7992588-.0032271 3.668984 3.1557371 7.9541469 1.6370319 12.1734696 2.0839841 0-.7606972-.0007156-1.2743427.0001789-1.7879881.0100192-5.4665139.0130607-10.9328486.041508-16.3991833.0028627-.5308565.1622748-1.0608167.249048-1.5911354m11.71223 8.5820916c.0073355 11.0778885-8.8846773 20.02751-19.9231182 20.0520717-11.0352205.0243825-20.00023005-9.008247-20.00613421-20.1580279-.00608307-11.1582071 8.96948241-20.2431872 19.96212141-20.2055378 11.1932013.03818725 19.9597955 8.9558964 19.967131 20.311494"/></g></svg>

<?xml version="1.0" encoding="UTF-8"?>
<svg width="168px" height="45px" viewBox="0 0 168 45" version="1.1" xmlns="http://www.w3.org/2000/svg" xmlns:xlink="http://www.w3.org/1999/xlink">
    <!-- Generator: Sketch 52.2 (67145) - http://www.bohemiancoding.com/sketch -->
    <title>Logo</title>
    <desc>Created with Sketch.</desc>
    <g id="Designs" stroke="none" stroke-width="1" fill="none" fill-rule="evenodd">
        <g id="Home" transform="translate(-637.000000, -4284.000000)" fill="#282138">
            <g id="JOIN-THE-WBTC-COMMUNITY" transform="translate(0.000000, 3815.000000)">
                <g id="SECTION---JOIN-THE-WBTC-COMMUNITY" transform="translate(130.000000, 85.000000)">
                    <g id="Logo-IDEX-Copy" transform="translate(480.000000, 356.000000)">
                        <g id="Logo" transform="translate(27.000000, 28.000000)">
                            <path d="M43.1868243,22.5966335 C43.2551693,11.1379482 34.1277061,1.66553785 22.9187604,1.56262948 C11.1956166,1.4547012 1.70352716,10.6653586 1.62212141,22.22749 C1.54071565,33.7801195 10.7359872,43.1446016 22.2383514,43.2233068 C33.8296358,43.3025498 43.1179425,34.1567928 43.1868243,22.5966335 Z M8.94568693e-05,20.1051394 C0.257188498,18.9959163 0.484587859,17.8788048 0.776038339,16.7785458 C3.50661981,6.47193227 12.7795399,-0.398187251 23.3816102,0.0181075697 C33.7696997,0.42561753 42.5661725,8.17171315 44.4356422,18.5573904 C46.6543514,30.8836255 38.0555783,42.777251 25.6395016,44.5675697 C25.3203195,44.6136454 25.0154505,44.7602988 24.7039617,44.8601594 L20.1078466,44.8601594 C19.8448435,44.7653187 19.588639,44.6229681 19.3174058,44.5824502 C10.1691885,43.2136255 3.04842173,36.8340239 0.747412141,27.9091434 C0.45113099,26.7594024 0.246990415,25.5856375 8.94568693e-05,24.422988 L8.94568693e-05,20.1051394 Z" id="Fill-1"></path>
                            <path d="M68.6750543,24.1595677 C68.6750543,27.1812012 68.7074377,30.2030139 68.6568051,33.223751 C68.6399872,34.230245 68.9788498,34.5491892 69.9791565,34.536998 C73.9030927,34.4887709 77.8288179,34.562994 81.7523962,34.5009622 C86.2826709,34.429249 89.2592588,31.3995478 89.3492524,26.85401 C89.3852141,25.0323167 89.3893291,23.2086514 89.3547987,21.3869582 C89.2701725,16.9197669 86.3125495,13.8707032 81.8654696,13.783751 C77.8944792,13.7061215 73.9204473,13.7957629 69.9487412,13.7446673 C68.9071054,13.7312211 68.6455335,14.132994 68.659131,15.0953845 C68.7017125,18.1163008 68.6748754,21.1381135 68.6750543,24.1595677 M62.9975847,24.1660219 C62.9974058,19.9973367 62.9872077,15.8284721 63.0011629,11.6599661 C63.0095719,9.10536454 64.0419042,8.07484661 66.5692396,8.07144024 C71.5423259,8.06444821 76.5154121,8.05189841 81.4883195,8.07341235 C89.4521278,8.10819323 95.0063259,13.6749263 95.0242173,21.6700458 C95.0295847,24.1558028 95.1303131,26.6761614 94.7767796,29.1210418 C93.8566262,35.4880936 88.9416869,39.9387908 82.544984,40.1465797 C77.0516166,40.3251454 71.54823,40.2225956 66.0496741,40.1903247 C64.0467348,40.178492 63.0163706,38.9982729 63.0045623,36.8158625 C62.9813035,32.5993088 62.9977636,28.3825757 62.9975847,24.1660219" id="Fill-5"></path>
                            <path d="M132.668956,40.2265757 C137.371525,34.7161375 141.834886,29.4859183 146.358719,24.1850618 C141.803218,18.8347231 137.320713,13.570261 132.625659,8.05587849 C135.288611,8.05587849 137.613237,8.0128506 139.93339,8.09567928 C140.34847,8.11055976 140.819371,8.58117729 141.138196,8.95067928 C143.829953,12.0680498 146.491295,15.2115956 149.164803,18.3445637 C149.472176,18.704743 149.798694,19.048249 150.234707,19.5299821 C150.621339,19.1075916 150.97362,18.7449024 151.301569,18.3612371 C153.97794,15.2304203 156.62139,12.0705598 159.351972,8.98797012 C159.784227,8.49978287 160.590592,8.12848805 161.245058,8.09334861 C163.339243,7.98075896 165.443269,8.0515757 167.944662,8.0515757 C163.233684,13.5605797 158.723269,18.8350817 154.147908,24.185241 C158.676215,29.4835876 163.146017,34.7134482 167.845007,40.2116952 C165.147525,40.2116952 162.741672,40.2575916 160.341007,40.1663367 C159.942029,40.1512769 159.518362,39.5797231 159.186656,39.1953406 C156.247103,35.7914761 153.325978,32.3718347 150.2721,28.8084084 C149.828036,29.2967749 149.446055,29.6944243 149.088943,30.1134084 C146.478771,33.1746633 143.851601,36.2219343 141.282937,39.3179701 C140.699499,40.0214761 140.090656,40.2722928 139.199128,40.245759 C137.150029,40.1851614 135.09771,40.2265757 132.668956,40.2265757" id="Fill-7"></path>
                            <path d="M129.789733,8.05159363 L129.789733,13.726255 L106.596966,13.726255 C106.560468,14.4080677 106.510551,14.9131076 106.510014,15.418506 C106.504289,20.5987052 106.505541,25.7790837 106.506615,30.9592829 C106.50733,33.9678287 107.021171,34.4927689 109.978973,34.4940239 C116.010334,34.4963546 122.041516,34.494741 128.072877,34.494741 L129.736417,34.494741 L129.736417,40.0946414 C129.462858,40.1342629 129.147433,40.2196016 128.832008,40.2199602 C122.226512,40.2269522 115.620659,40.2525896 109.015164,40.2136853 C104.97225,40.1898406 101.924097,37.9091833 101.022193,34.280498 C100.817158,33.4563347 100.791215,32.5722908 100.788711,31.7153187 C100.770819,25.0481474 100.772787,18.3807968 100.781196,11.7136255 C100.784596,8.9874502 101.707969,8.05446215 104.378615,8.05302789 C112.372302,8.04890438 120.366167,8.05159363 128.360033,8.05159363 C128.783701,8.05159363 129.20719,8.05159363 129.789733,8.05159363" id="Fill-9"></path>
                            <polygon id="Fill-11" points="50.476754 40.1023506 55.939885 40.1023506 55.939885 8.14284861 50.476754 8.14284861"></polygon>
                            <polygon id="Fill-13" points="109.021444 26.899243 127.191029 26.899243 127.191029 21.3538446 109.021444 21.3538446"></polygon>
                            <path d="M7.69384537,26.7273108 C10.1871872,28.9583068 13.1337176,28.6904582 16.0374875,28.7035458 C17.1002351,28.7083865 17.4877623,28.2589243 17.4525163,27.231992 C17.4047463,25.8423705 17.3936537,24.4484462 17.4543054,23.060259 C17.4680818,22.7432869 17.8393278,22.4419124 18.0459732,22.1333665 C18.2359796,22.4580478 18.5768102,22.7764542 18.5904077,23.1083068 C18.6512383,24.5931275 18.5533725,26.0865538 18.6641201,27.5654582 C18.6931042,27.9534263 19.263839,28.3005179 19.5858837,28.6664343 C19.8955834,28.2888645 20.433577,27.932988 20.4722224,27.529243 C20.5906633,26.2930876 20.5430722,25.0381076 20.5135514,23.7915538 C20.4049508,19.2046016 21.3775259,20.2114542 16.5992767,20.0569124 C15.8054364,20.0312749 15.4635323,20.3525498 15.4771297,21.1508964 C15.5003885,22.4937251 15.4154045,23.8412151 15.4978837,25.1792032 C15.5714173,26.3728685 15.1314684,26.7880876 13.9463438,26.7472112 C11.8643246,26.6756773 9.77819042,26.7273108 7.69384537,26.7273108 M27.0744971,31.1242231 C27.1122479,30.3154781 27.1643118,29.698745 27.165922,29.082012 C27.1745099,25.9182072 27.1700371,22.7544024 27.1700371,19.5905976 C27.170216,15.8898406 27.170216,15.9219323 23.4328869,15.9317928 C22.3704971,15.9346614 22.0167847,16.2921514 22.0319923,17.352251 C22.0817304,20.8029084 22.0124907,24.2553586 22.0726058,27.7056574 C22.0910339,28.7605578 21.8042351,29.1660956 20.7117879,29.1239641 C18.848938,29.0524303 16.9812575,29.1053187 15.115545,29.1056773 C14.3301137,29.1058566 13.5448613,29.1058566 12.75943,29.1058566 C12.7202479,29.3238645 12.6810658,29.5422311 12.6418837,29.7605976 C14.2905738,30.2297809 15.9136792,30.8775299 17.5949316,31.1172311 C19.2361073,31.3511952 20.9391872,31.1084462 22.6097048,31.1891235 C23.745807,31.2439841 24.1188422,30.8251793 24.1032767,29.7109363 C24.0562224,26.3560159 24.0785866,23.0000199 24.0975514,19.6445618 C24.1004141,19.1264343 24.2274428,18.6092032 24.2968613,18.0916135 C24.4637879,18.0778088 24.6308933,18.064004 24.7978198,18.0501992 C24.9019476,18.5362351 25.0914173,19.0217331 25.096069,19.5086653 C25.1243374,22.4325896 25.1103821,25.3566932 25.1103821,28.2809761 L25.1103821,31.0365538 C25.8557367,31.0699004 26.3634939,31.0926693 27.0744971,31.1242231 M30.8256026,13.9469522 C31.0349316,13.979761 31.2444396,14.0125697 31.4537687,14.0451992 C31.4886569,14.4480478 31.5528869,14.8507171 31.5536026,15.2535657 C31.5655898,20.8636853 31.5695259,26.4739841 31.5736409,32.0842829 C31.5741776,32.8340438 31.3440946,33.6454781 32.5904077,33.6904781 C33.9624971,33.7397809 33.6984204,32.8139641 33.6996728,32.0444821 C33.7098709,26.5300996 33.7053981,21.0157171 33.7053981,15.5013347 C33.705577,11.9694622 33.7028933,12.0255777 30.2591617,11.8665538 C28.8638134,11.8021912 28.4299476,12.255239 28.4489125,13.6418127 C28.5152895,18.5319323 28.4744971,23.4234861 28.4743182,28.3146813 C28.4743182,31.678745 28.4743182,31.669243 25.1606569,31.644502 C22.8943565,31.6274701 20.6278773,31.6412749 18.3613981,31.6412749 C22.0303821,34.797012 26.315545,33.2783068 30.5348677,33.725259 C30.5348677,32.9645618 30.5341521,32.4509163 30.5350466,31.9372709 C30.5450658,26.470757 30.5481073,21.0044223 30.5765546,15.5380876 C30.5794173,15.0072311 30.7388294,14.4772709 30.8256026,13.9469522 M42.5378326,22.5290438 C42.5451681,33.6069323 33.6531553,42.5565538 22.6147144,42.5811155 C11.5794939,42.605498 2.61448435,33.5728685 2.60858019,22.4230876 C2.60249712,11.2648805 11.5780626,2.1799004 22.5707016,2.2175498 C33.7639029,2.25573705 42.5304971,11.1734462 42.5378326,22.5290438" id="Fill-16"></path>
                        </g>
                    </g>
                </g>
            </g>
        </g>
    </g>
</svg>
